html/assets/images/dynamic/benefit-logo-6.svg

<svg width="44" height="48" viewBox="0 0 44 48" fill="none" xmlns="http://www.w3.org/2000/svg">
<path d="M5 33.01C2.84 33.01 1 30.96 1 29.01V20.01C1 16.71 6.53 15.01 10 15.01C13.47 15.01 20 16.71 20 20.01V32.01" stroke="white" stroke-width="2" stroke-linecap="round" stroke-linejoin="round"/>
<path d="M10 12.01C7.67 12.01 6 10.38 6 8.01001V6.01001C6 3.64001 7.67 2.01001 10 2.01001C12.33 2.01001 14 3.64001 14 6.01001V8.01001C14 10.38 12.33 12.01 10 12.01Z" stroke="white" stroke-width="2" stroke-linejoin="round"/>
<path d="M5 47.01V22.01" stroke="white" stroke-width="2" stroke-linecap="round" stroke-linejoin="round"/>
<path d="M16 22.01V32.01" stroke="white" stroke-width="2" stroke-linecap="round" stroke-linejoin="round"/>
<path d="M16 41.01V47.01" stroke="white" stroke-width="2" stroke-linecap="round" stroke-linejoin="round"/>
<path d="M10 32.01V47.01" stroke="white" stroke-width="2" stroke-linecap="round" stroke-linejoin="round"/>
<path d="M14.01 41H25.01V32H14.01L14.01 41Z" stroke="white" stroke-width="2" stroke-linejoin="round"/>
<path d="M16.8799 8C19.2999 3.82 23.8199 1 29.0099 1C36.7399 1 43.0099 7.27 43.0099 15C43.0099 22.73 36.7399 29 29.0099 29C26.8799 29 24.8599 28.52 23.0599 27.67" stroke="white" stroke-width="2" stroke-miterlimit="10"/>
<path d="M26 16.01V17.01C26 18 26.92 19.01 28.02 19.01H30C31.1 19.01 32 18 32 17.01V16.71C32 15.94 31.46 15.25 30.64 15L27.37 14.02C26.55 13.77 26 13.09 26 12.31V12.01C26 11.02 26.9 10.01 28 10.01H30C31.1 10.01 32 11.02 32 12.01V13.01" stroke="white" stroke-width="2" stroke-miterlimit="10"/>
<path d="M29 10.01V7.01001" stroke="white" stroke-width="2" stroke-miterlimit="10"/>
<path d="M29 19.01V22.01" stroke="white" stroke-width="2" stroke-miterlimit="10"/>
</svg>

<svg width="44" height="48" fill="none" xmlns="http://www.w3.org/2000/svg"><path d="M5 33.01c-2.16 0-4-2.05-4-4v-9c0-3.3 5.53-5 9-5 3.47 0 10 1.7 10 5v12" stroke="#fff" stroke-width="2" stroke-linecap="round" stroke-linejoin="round"/><path d="M10 12.01c-2.33 0-4-1.63-4-4v-2c0-2.37 1.67-4 4-4s4 1.63 4 4v2c0 2.37-1.67 4-4 4z" stroke="#fff" stroke-width="2" stroke-linejoin="round"/><path d="M5 47.01v-25m11 0v10m0 9v6m-6-15v15" stroke="#fff" stroke-width="2" stroke-linecap="round" stroke-linejoin="round"/><path d="M14.01 41h11v-9h-11v9z" stroke="#fff" stroke-width="2" stroke-linejoin="round"/><path d="M16.88 8c2.42-4.18 6.94-7 12.13-7 7.73 0 14 6.27 14 14s-6.27 14-14 14c-2.13 0-4.15-.48-5.95-1.33" stroke="#fff" stroke-width="2" stroke-miterlimit="10"/><path d="M26 16.01v1c0 .99.92 2 2.02 2H30c1.1 0 2-1.01 2-2v-.3c0-.77-.54-1.46-1.36-1.71l-3.27-.98c-.82-.25-1.37-.93-1.37-1.71v-.3c0-.99.9-2 2-2h2c1.1 0 2 1.01 2 2v1m-3-3v-3m0 12v3" stroke="#fff" stroke-width="2" stroke-miterlimit="10"/></svg>
